Newaita-dark/actions/scalable/application-exit.svg

<?xml version="1.0" encoding="UTF-8"?>
<svg xmlns="http://www.w3.org/2000/svg" xmlns:xlink="http://www.w3.org/1999/xlink" width="512pt" height="512pt" viewBox="0 0 512 512" version="1.1">
<defs>
<filter id="alpha" filterUnits="objectBoundingBox" x="0%" y="0%" width="100%" height="100%">
  <feColorMatrix type="matrix" in="SourceGraphic" values="0 0 0 0 1 0 0 0 0 1 0 0 0 0 1 0 0 0 1 0"/>
</filter>
<mask id="mask0">
  <g filter="url(#alpha)">
<rect x="0" y="0" width="512" height="512" style="fill:rgb(0%,0%,0%);fill-opacity:0.988235;stroke:none;"/>
  </g>
</mask>
<clipPath id="clip1">
  <rect x="0" y="0" width="512" height="512"/>
</clipPath>
<g id="surface5" clip-path="url(#clip1)">
<path style=" stroke:none;fill-rule:nonzero;fill:rgb(93.725491%,32.549021%,31.37255%);fill-opacity:1;" d="M 21.167969 131.011719 L 21.167969 448.542969 C 21.167969 471.996094 40.050781 490.878906 63.507812 490.878906 L 444.542969 490.878906 C 467.996094 490.878906 486.878906 471.996094 486.878906 448.542969 L 486.878906 131.011719 Z M 52.921875 162.765625 L 455.125 162.765625 L 455.125 437.957031 C 455.125 449.6875 445.683594 459.128906 433.957031 459.128906 L 74.089844 459.128906 C 62.363281 459.128906 52.921875 449.6875 52.921875 437.957031 Z M 52.921875 162.765625 "/>
</g>
<mask id="mask1">
  <g filter="url(#alpha)">
<rect x="0" y="0" width="512" height="512" style="fill:rgb(0%,0%,0%);fill-opacity:0.988235;stroke:none;"/>
  </g>
</mask>
<clipPath id="clip2">
  <rect x="0" y="0" width="512" height="512"/>
</clipPath>
<g id="surface8" clip-path="url(#clip2)">
<path style=" stroke:none;fill-rule:nonzero;fill:rgb(93.725491%,32.549021%,31.37255%);fill-opacity:1;" d="M 63.507812 25.167969 C 40.050781 25.167969 21.167969 44.050781 21.167969 67.507812 L 21.167969 131.011719 L 52.921875 131.011719 L 52.921875 78.089844 C 52.921875 66.363281 62.363281 56.921875 74.089844 56.921875 L 433.957031 56.921875 C 445.683594 56.921875 455.125 66.363281 455.125 78.089844 L 455.125 131.011719 L 486.878906 131.011719 L 486.878906 67.507812 C 486.878906 44.050781 467.996094 25.167969 444.542969 25.167969 Z M 63.507812 25.167969 "/>
</g>
</defs>
<g id="surface1">
<use xlink:href="#surface5" mask="url(#mask0)"/>
<use xlink:href="#surface8" mask="url(#mask1)"/>
<path style=" stroke:none;fill-rule:nonzero;fill:rgb(93.725491%,32.549021%,31.37255%);fill-opacity:1;" d="M 216.601562 251.070312 L 313.898438 348.367188 C 320.097656 354.566406 320.53125 364.1875 314.867188 369.851562 L 312.929688 371.789062 C 307.265625 377.453125 297.644531 377.019531 291.445312 370.820312 L 194.148438 273.523438 C 187.949219 267.324219 187.515625 257.707031 193.183594 252.039062 L 195.117188 250.105469 C 200.785156 244.4375 210.402344 244.871094 216.601562 251.070312 Z M 216.601562 251.070312 "/>
<path style=" stroke:none;fill-rule:nonzero;fill:rgb(93.725491%,32.549021%,31.37255%);fill-opacity:1;" d="M 194.148438 348.367188 L 291.445312 251.070312 C 297.644531 244.871094 307.265625 244.4375 312.929688 250.105469 L 314.867188 252.039062 C 320.53125 257.707031 320.097656 267.324219 313.898438 273.523438 L 216.601562 370.820312 C 210.402344 377.019531 200.785156 377.453125 195.117188 371.789062 L 193.183594 369.851562 C 187.515625 364.1875 187.949219 354.566406 194.148438 348.367188 Z M 194.148438 348.367188 "/>
</g>
</svg>

<svg xmlns="http://www.w3.org/2000/svg" xmlns:xlink="http://www.w3.org/1999/xlink" width="512pt" height="512pt" viewBox="0 0 512 512"><defs><filter id="a" filterUnits="objectBoundingBox" x="0%" y="0%" width="100%" height="100%"><feColorMatrix in="SourceGraphic" values="0 0 0 0 1 0 0 0 0 1 0 0 0 0 1 0 0 0 1 0"/></filter><mask id="e"><path fill-opacity=".988" d="M0 0h512v512H0z" filter="url(#a)"/></mask><clipPath id="b"><path d="M0 0h512v512H0z"/></clipPath><g id="d" clip-path="url(#b)"><path d="M21.168 131.012v317.531c0 23.453 18.883 42.336 42.34 42.336h381.035c23.453 0 42.336-18.883 42.336-42.336V131.012zm31.754 31.754h402.203v275.191a21.123 21.123 0 0 1-21.168 21.172H74.09a21.123 21.123 0 0 1-21.168-21.172zm0 0" fill="#ef5350"/></g><mask id="g"><path fill-opacity=".988" d="M0 0h512v512H0z" filter="url(#a)"/></mask><clipPath id="c"><path d="M0 0h512v512H0z"/></clipPath><g id="f" clip-path="url(#c)"><path d="M63.508 25.168c-23.457 0-42.34 18.883-42.34 42.34v63.504h31.754V78.09A21.122 21.122 0 0 1 74.09 56.922h359.867a21.122 21.122 0 0 1 21.168 21.168v52.922h31.754V67.508c0-23.457-18.883-42.34-42.336-42.34zm0 0" fill="#ef5350"/></g></defs><use xlink:href="#d" mask="url(#e)"/><use xlink:href="#f" mask="url(#g)"/><path d="M216.602 251.07l97.296 97.297c6.2 6.2 6.633 15.82.97 21.485l-1.938 1.937c-5.664 5.664-15.285 5.23-21.485-.969l-97.297-97.297c-6.199-6.199-6.632-15.816-.964-21.484l1.933-1.934c5.668-5.667 15.285-5.234 21.485.965zm0 0" fill="#ef5350"/><path d="M194.148 348.367l97.297-97.297c6.2-6.199 15.82-6.632 21.485-.965l1.937 1.934c5.664 5.668 5.23 15.285-.969 21.484l-97.296 97.297c-6.2 6.2-15.817 6.633-21.485.97l-1.933-1.938c-5.668-5.664-5.235-15.286.964-21.485zm0 0" fill="#ef5350"/></svg>
